X:1
T:Title
%%score ( 1 2 ) { 3 | 4 }
L:1/8
M:4/4
K:Eb
V:1 treble nm="Grand Piano, Soprano"
V:2 treble 
V:3 bass nm="Choir Pad, The Atoning Blood"
V:4 bass 
V:1
 [EG]2 [EG]2 [EG]2 [EG]2 | [EG]2 [EG]4 [EG]2 | [EB]2 [FB]2 [DF]2 [EG]2 | [FA]2 [EG]6 | %4
w: By~J.~J.~Sims * * *||||
 [EG]2 [EG]2 [CF]2 [CF]2 | E2 [CE]4 [CF]2 | [EG]2 [FA]2 [FA]2 [EG]2 | [DF]2 [B,E]6 | %8
w: ||||
 [EB]2 [EB]2 [FB]2 [GB]2 | [GB]2 [_Gc]4 [=GB]2 | [Ec]2 [DB]2 [Ec]2 [Fd]2 | [Ec]2 [DB]6 | %12
w: ||||
 [FA]2 G2 [FA]2 [EB]2 | [Ee]2 [Fd]4 [Ec]2 | [Ec]2 [Fd]2 [Ge]2 [EG]2 | [DF]2 [B,E]6 | z4 z2 e2- | %17
w: |||||
 e8 | z4 z2 A2- | A8 | z4 z2 d2- | d8 | z4 z2 =G2- | G8 | [EG]2 .[DA]2 .[_DB]2 [Cc]2 | %25
w: ||||||||
 [EB]2 [Ec]2 [Ec]2 [Fd]2 | [Fd]2 [Ge]6 | E2 [EG]6 | [DF]2 [B,E]6- | [B,E]2 z2 z4 |] %30
w: |||||
V:2
 x8 | x8 | x8 | x8 | x8 | x8 | x8 | x8 | x8 | x8 | x8 | x8 | x8 | x8 | x8 | x8 | E2 G2 B2 z2 | %17
 G2 G2 G2 .G2 | d2 c2 G2 z2 | z2 D2 D2 .D2 | A2 B2 c2 z2 | F2 F2 F2 .F2 | d2 B2 _G2 z2 | %23
 E2 E2 E2 .E2 | x8 | x8 | x8 | x8 | x8 | x8 |] %30
V:3
 B,2 B,2 B,2 B,2 | =B,2 C4 _B,2 | G,2 A,2 B,2 B,2 | B,2 B,6 | B,2 B,2 A,2 A,2 | G,2 G,4 A,2 | %6
 B,2 C2 C2 B,2 | A,2 G,6 | G,2 G,2 A,2 B,2 | B,2 =A,4 B,2 | B,2 B,2 =A,2 A,2 | =A,2 B,6 | %12
 B,2 B,2 B,2 B,2 | C2 =B,4 C2 | A,2 A,2 B,2 B,2 | A,2 G,6 | z8 | B,2 B,2 B,2 .B,2 | z8 | %19
 B,2 B,2 B,2 .B,2 | z8 | B,2 B,2 B,2 .B,2 | z8 | B,2 B,2 B,2 .B,2 | .B,2 .B,2 .B,2 A,2 | %25
 B,2 A,2 A,2 A,2 | A,2 B,6 | B,2 B,6 | A,2 G,6- | G,2 z2 z4 |] %30
V:4
 E,2 E,2 E,2 E,2 | E,2 E,4 E,2 | E,2 B,,2 B,,2 B,,2 | B,,2 E,6 | E,2 G,2 z2 A,,2 | B,,2 C,4 A,,2 | %6
 G,,2 F,,2 A,,2 B,,2 | B,,2 E,6 | E,2 E,2 E,2 E,2 | E,2 E,4 E,2 | E,2 F,2 F,2 F,2 | F,2 B,,6 | %12
 B,,2 E,2 F,2 G,2 | C,2 G,4 A,2 | z2 F,2 E,2 B,,2 | B,,2 E,6 | z8 | E,2 E,2 E,2 .E,2 | z8 | %19
 F,2 F,2 F,2 .F,2 | z8 | B,,2 D,2 F,2 z2 | z8 | E,2 E,2 E,2 .E,2 | .E,2 .F,2 .G,2 z2 | %25
 G,2 z2 z2 F,2 | F,2 E,6 | E,2 B,,6 | B,,2 E,6- | E,2 z2 z4 |] %30

